X: 1
T: Dinny's Trip To The Gaeltacht
R: reel
M: 4/4
L: 1/8
K: Amaj
B|cA A/A/A EAce|a2 ae fecB|c2 (3cBc Acec|B2 GB EBGB|
cA A/A/A EAce|a2 ae fecB|aaae aaae|dBGB A3:|
z|ac'bg aaae|ac' c'/c'/c' bafe|c2 cA c3 A|d2 de fgae|
ac'bg aaae|ac' c'/c'/c' bafe|c'3 a (3c'ba ec|cBGB A3:|

